X:42
T:Maraichine
C:D. Gravouille
M:4/4
L:1/4
K:G
B/c/|ddAB|cd/c/B A/B/|cBAG|AB/A/G::\
D>EFG|AG/A/ BG|D>EFG|AB/A/G:|
